assets/img/braze_icons/intersect-circle.svg

<svg fill="none" height="24" viewBox="0 0 24 24" width="24" xmlns="http://www.w3.org/2000/svg"><g fill="#801ed7"><path d="m1 9c0-4.41828 3.58172-8 8-8 3.8003 0 6.9817 2.64986 7.7973 6.2027-.5777-.13263-1.1793-.2027-1.7973-.2027-4.4183 0-8 3.5817-8 8 0 .618.07007 1.2196.2027 1.7973-3.55284-.8156-6.2027-3.997-6.2027-7.7973z"/><path d="m7.2027 16.7973c.57772.1326 1.17933.2027 1.7973.2027 4.4183 0 8-3.5817 8-8 0-.61797-.0701-1.21958-.2027-1.7973 3.5528.8156 6.2027 3.997 6.2027 7.7973 0 4.4183-3.5817 8-8 8-3.8003 0-6.9817-2.6499-7.7973-6.2027z"/></g></svg>

<svg width="24" height="24" viewBox="0 0 24 24" fill="none" xmlns="http://www.w3.org/2000/svg">
<path d="M1 9C1 4.58172 4.58172 1 9 1C12.8003 1 15.9817 3.64986 16.7973 7.2027C16.2196 7.07007 15.618 7 15 7C10.5817 7 7 10.5817 7 15C7 15.618 7.07007 16.2196 7.2027 16.7973C3.64986 15.9817 1 12.8003 1 9Z" fill="#801ED7"/>
<path d="M7.2027 16.7973C7.78042 16.9299 8.38203 17 9 17C13.4183 17 17 13.4183 17 9C17 8.38203 16.9299 7.78042 16.7973 7.2027C20.3501 8.0183 23 11.1997 23 15C23 19.4183 19.4183 23 15 23C11.1997 23 8.0183 20.3501 7.2027 16.7973Z" fill="#801ED7"/>
</svg>
